X:1
T:I Know It Is Done
T:I Know It Is Done
T:Daniel Brink Towner
T:Evan B. McCulllough, 1917
T:Public Domain Courtesy of the Cyber Hymnal™
T:Public Domain Courtesy of the Cyber Hymnal™
C:Daniel Brink Towner
Z:Public Domain
Z:Courtesy of the Cyber Hymnal™
%%score ( 1 2 ) ( 3 4 )
L:1/8
Q:1/4=122
M:6/4
K:Ab
V:1 treble 
V:2 treble 
V:3 bass 
V:4 bass 
V:1
 E2 | [EA]2 [EA]2 [FA]2 [EA]4 [EA]2 | [FB]2 [DA]2 [FB]2 [Ec]4 [Ec]2 | %3
w: 1.~’Tis|set- tled at last, and|Je- sus is mine, I|
w: 2.~O|why did I wait, and|add to my sins, A-|
w: 3.~For|rich- es of grace I|press with my claim, For|
 [Ed]2 [Ed]2 [Ed]2 [Gd]4 [EB]2 | [Ec]2 [Ec]2 [EA]2 [EB]4 [DE]2 | [CA]2 [DA]2 [EA]2 [CA]4 [EA]2 | %6
w: pass with the world, cross|o- ver the line, Be-|lieve with my heart on|
w: fraid to come out where|glo- ry be- gins? But|now I am free, thro’|
w: full- ness of God, His|rest, and His flame: While|look- ing with joy for|
 [FB]2 [FA]2 [FB]2 [Ec]4 [Ec]2 | [Ae]2 [Ge]2 [_Ge]2 [Fd]4 [_FB]2 | %8
w: Je- sus the Son, Thro’|Cal- va- ry’s blood, I|
w: Je- sus the Son, All|glo- ry to God, I|
w: Je- sus the Son, I’ll|seek for lost souls, I|
 [Ec]3 [Ec] [DB]2 !fermata![CA]4 ||"^Refrain" A2 | [Fd]2 [Fd]2 [Fd]2 [Fd]4 [FB]2 | %11
w: know it is done.|||
w: know it is done.|I|know it is done, thro’|
w: know it is done.|||
 [Ec]2 [Ec]2 [Ec]2 [Ec]4 [EA]2 | [EB] [EB]3 [EB]2 [=DB]4 [DF]2 | [DB]6- [DB]4 [EB]2 | %14
w: |||
w: Je- sus the Son, There’s|no- thing more sure can|be; * There’s|
w: |||
 [Ec]2 [Ec]2 [=Ec]2 [FA]4 [FA]2 | [FB] [FA]3 [DF]2 [CE]4 [CE]2 | %16
w: ||
w: no one so true, so|lov- ing, so good As|
w: ||
 [DF] [FA]3 [Fd]2 [Ec] [Ec]3 [DB]2 | [CA]6- [CA]4 |] %18
w: ||
w: Je- sus my Sav- ior to|me. *|
w: ||
V:2
 E2 | x12 | x12 | x12 | x12 | x12 | x12 | x12 | x10 || A2 | x12 | x12 | x12 | x12 | x12 | x12 | %16
 x12 | x10 |] %18
V:3
 E,2 | [A,C]2 [A,C]2 [A,D]2 [A,C]4 [C,A,]2 | [D,A,]2 [D,F,]2 [D,A,]2 [A,,A,]4 A,2 | %3
 [E,G,]2 [F,A,]2 [G,B,]2 [E,B,]4 [E,G,]2 | [A,,A,]2 [A,,A,]2 [C,A,]2 [E,G,]4 E,2 | %5
 [A,,E,]2 [B,,E,]2 [C,E,]2 [A,,E,]4 [C,A,]2 | [D,A,]2 [D,A,]2 [D,A,]2 [A,,A,]4 [A,,A,]2 | %7
 [C,A,]2 [C,A,]2 [C,A,]2 [D,A,]4 [D,A,]2 | [E,A,]3 [E,A,] [E,G,]2 !fermata![A,,A,]4 || A,2 | %10
 [D,A,]2 [F,A,]2 A,2 [D,A,]4 [D,A,]2 | [A,,A,]2 [C,A,]2 [E,A,]2 A,4 [C,A,]2 | %12
 [E,G,] [E,G,]3 [E,G,]2 [F,A,]4 [F,A,]2 | [E,G,]6- [E,G,]4 [E,G,]2 | %14
 A,2 A,2 [G,B,]2 [F,C]4 [F,C]2 | [D,D] [D,D]3 [D,A,]2 [A,,A,]4 [A,,A,]2 | %16
 [D,A,] [D,D]3 [D,A,]2 [E,A,] [E,A,]3 [E,G,]2 | [A,,A,]6- [A,,A,]4 |] %18
V:4
 E,2 | x12 | x10 A,2 | x12 | x10 E,2 | x12 | x12 | x12 | x10 || A,2 | x4 A,2 x6 | x6 A,4 x2 | x12 | %13
 x12 | A,2 A,2 x8 | x12 | x12 | x10 |] %18

